SF_Symbols/party.popper.svg

<?xml version="1.0" encoding="UTF-8"?>
<svg xmlns="http://www.w3.org/2000/svg" xmlns:xlink="http://www.w3.org/1999/xlink" width="24" height="24" viewBox="0 0 24 24" version="1.1">
<g id="surface1">
<path style=" stroke:none;fill-rule:nonzero;fill:rgb(100%,100%,100%);fill-opacity:1;" d="M 15 18.308594 C 15.511719 18.097656 15.839844 17.777344 15.984375 17.351562 C 16.132812 16.929688 16.148438 16.445312 16.023438 15.898438 C 15.902344 15.355469 15.691406 14.789062 15.382812 14.203125 C 15.078125 13.617188 14.722656 13.050781 14.316406 12.507812 C 13.910156 11.957031 13.5 11.476562 13.085938 11.0625 C 12.65625 10.632812 12.167969 10.207031 11.625 9.789062 C 11.085938 9.367188 10.53125 9.003906 9.957031 8.691406 C 9.386719 8.378906 8.835938 8.164062 8.296875 8.042969 C 7.765625 7.925781 7.285156 7.945312 6.851562 8.109375 C 6.421875 8.273438 6.085938 8.621094 5.839844 9.160156 L 0.28125 21.476562 C 0.125 21.820312 0.078125 22.148438 0.140625 22.460938 C 0.203125 22.78125 0.339844 23.050781 0.554688 23.269531 C 0.765625 23.492188 1.027344 23.640625 1.339844 23.710938 C 1.652344 23.777344 1.984375 23.742188 2.335938 23.597656 Z M 1.460938 21.984375 L 6.140625 11.605469 C 6.378906 12.207031 6.722656 12.832031 7.171875 13.480469 C 7.628906 14.132812 8.164062 14.761719 8.773438 15.375 C 9.375 15.96875 9.992188 16.492188 10.632812 16.941406 C 11.269531 17.390625 11.878906 17.734375 12.460938 17.972656 L 1.835938 22.386719 C 1.679688 22.457031 1.558594 22.445312 1.472656 22.359375 C 1.390625 22.277344 1.386719 22.152344 1.460938 21.984375 Z M 7.164062 9.441406 C 7.367188 9.226562 7.722656 9.1875 8.222656 9.320312 C 8.726562 9.449219 9.320312 9.742188 10.003906 10.191406 C 10.691406 10.640625 11.410156 11.242188 12.160156 11.992188 C 12.914062 12.734375 13.515625 13.449219 13.960938 14.136719 C 14.410156 14.824219 14.695312 15.421875 14.820312 15.929688 C 14.953125 16.433594 14.914062 16.789062 14.710938 16.988281 C 14.496094 17.199219 14.136719 17.242188 13.632812 17.117188 C 13.125 16.988281 12.527344 16.699219 11.839844 16.257812 C 11.160156 15.804688 10.445312 15.203125 9.695312 14.445312 C 8.945312 13.703125 8.34375 12.988281 7.894531 12.300781 C 7.449219 11.613281 7.164062 11.015625 7.03125 10.507812 C 6.90625 10.003906 6.949219 9.648438 7.164062 9.441406 Z M 8.539062 2.738281 C 8.820312 2.738281 9.0625 2.636719 9.261719 2.4375 C 9.46875 2.238281 9.570312 1.992188 9.570312 1.707031 C 9.570312 1.425781 9.46875 1.183594 9.261719 0.984375 C 9.0625 0.785156 8.820312 0.683594 8.539062 0.683594 C 8.246094 0.683594 8 0.785156 7.800781 0.984375 C 7.605469 1.183594 7.507812 1.425781 7.507812 1.707031 C 7.507812 1.992188 7.605469 2.238281 7.800781 2.4375 C 8 2.636719 8.246094 2.738281 8.539062 2.738281 Z M 9.777344 4.492188 C 9.746094 4.320312 9.675781 4.175781 9.5625 4.050781 C 9.449219 3.917969 9.304688 3.851562 9.121094 3.851562 C 8.945312 3.859375 8.789062 3.929688 8.644531 4.058594 C 8.507812 4.183594 8.457031 4.339844 8.492188 4.527344 C 8.707031 5.628906 8.8125 6.742188 8.8125 7.867188 C 8.8125 8.992188 8.707031 10.117188 8.492188 11.242188 C 8.449219 11.421875 8.5 11.574219 8.644531 11.699219 C 8.789062 11.824219 8.945312 11.890625 9.113281 11.898438 C 9.289062 11.898438 9.429688 11.835938 9.542969 11.710938 C 9.664062 11.585938 9.738281 11.4375 9.769531 11.269531 C 9.988281 10.125 10.097656 8.992188 10.097656 7.875 C 10.097656 6.75 9.992188 5.621094 9.777344 4.492188 Z M 14.335938 4.359375 C 14.664062 4.359375 14.960938 4.28125 15.226562 4.125 C 15.492188 3.960938 15.707031 3.75 15.863281 3.488281 C 16.019531 3.21875 16.097656 2.921875 16.097656 2.597656 C 16.097656 2.101562 15.925781 1.6875 15.582031 1.351562 C 15.242188 1.007812 14.828125 0.835938 14.335938 0.835938 C 13.847656 0.835938 13.429688 1.007812 13.085938 1.351562 C 12.742188 1.6875 12.570312 2.101562 12.570312 2.597656 C 12.570312 2.921875 12.648438 3.21875 12.804688 3.488281 C 12.96875 3.75 13.179688 3.960938 13.445312 4.125 C 13.710938 4.28125 14.007812 4.359375 14.335938 4.359375 Z M 12.554688 7.3125 C 12.785156 7.3125 12.976562 7.230469 13.132812 7.070312 C 13.296875 6.90625 13.378906 6.710938 13.378906 6.476562 C 13.378906 6.253906 13.296875 6.058594 13.132812 5.898438 C 12.976562 5.734375 12.785156 5.652344 12.554688 5.652344 C 12.328125 5.652344 12.132812 5.734375 11.960938 5.898438 C 11.800781 6.058594 11.71875 6.253906 11.71875 6.476562 C 11.71875 6.710938 11.800781 6.90625 11.960938 7.070312 C 12.132812 7.230469 12.328125 7.3125 12.554688 7.3125 Z M 21.984375 3.273438 C 22.210938 3.273438 22.398438 3.195312 22.554688 3.039062 C 22.71875 2.875 22.800781 2.679688 22.800781 2.445312 C 22.800781 2.214844 22.71875 2.019531 22.554688 1.855469 C 22.398438 1.695312 22.210938 1.613281 21.984375 1.613281 C 21.753906 1.613281 21.554688 1.695312 21.394531 1.855469 C 21.238281 2.019531 21.160156 2.214844 21.160156 2.445312 C 21.160156 2.679688 21.238281 2.875 21.394531 3.039062 C 21.554688 3.195312 21.753906 3.273438 21.984375 3.273438 Z M 19.273438 3.882812 L 17.523438 5.632812 C 17.402344 5.757812 17.34375 5.914062 17.34375 6.09375 C 17.34375 6.273438 17.402344 6.429688 17.523438 6.554688 C 17.652344 6.679688 17.808594 6.742188 17.992188 6.742188 C 18.171875 6.742188 18.324219 6.679688 18.449219 6.554688 L 20.203125 4.808594 C 20.328125 4.679688 20.390625 4.523438 20.390625 4.339844 C 20.390625 4.160156 20.328125 4.007812 20.203125 3.882812 C 20.078125 3.757812 19.925781 3.695312 19.742188 3.695312 C 19.5625 3.695312 19.40625 3.757812 19.273438 3.882812 Z M 15.796875 7.367188 L 11.015625 12.140625 C 10.890625 12.265625 10.828125 12.421875 10.828125 12.609375 C 10.828125 12.789062 10.890625 12.945312 11.015625 13.070312 C 11.148438 13.195312 11.300781 13.257812 11.476562 13.257812 C 11.65625 13.257812 11.8125 13.195312 11.945312 13.070312 L 16.714844 8.289062 C 16.835938 8.164062 16.890625 8.011719 16.882812 7.835938 C 16.882812 7.65625 16.828125 7.5 16.714844 7.367188 C 16.585938 7.257812 16.429688 7.199219 16.246094 7.199219 C 16.070312 7.199219 15.921875 7.257812 15.796875 7.367188 Z M 22.835938 11.679688 C 23.125 11.679688 23.367188 11.582031 23.570312 11.382812 C 23.769531 11.179688 23.867188 10.933594 23.867188 10.640625 C 23.867188 10.359375 23.769531 10.117188 23.570312 9.917969 C 23.367188 9.71875 23.125 9.617188 22.835938 9.617188 C 22.542969 9.617188 22.296875 9.71875 22.097656 9.917969 C 21.902344 10.117188 21.804688 10.359375 21.804688 10.640625 C 21.804688 10.933594 21.902344 11.179688 22.097656 11.382812 C 22.296875 11.582031 22.542969 11.679688 22.835938 11.679688 Z M 18.804688 12.066406 C 19.226562 12.066406 19.578125 11.925781 19.867188 11.644531 C 20.160156 11.355469 20.304688 11.003906 20.304688 10.585938 C 20.304688 10.171875 20.160156 9.820312 19.867188 9.535156 C 19.578125 9.242188 19.226562 9.09375 18.804688 9.09375 C 18.394531 9.09375 18.042969 9.242188 17.757812 9.535156 C 17.476562 9.820312 17.335938 10.171875 17.335938 10.585938 C 17.335938 11.003906 17.476562 11.355469 17.757812 11.644531 C 18.042969 11.925781 18.394531 12.066406 18.804688 12.066406 Z M 22.480469 16.480469 C 22.769531 16.480469 23.011719 16.382812 23.210938 16.179688 C 23.414062 15.980469 23.511719 15.738281 23.511719 15.449219 C 23.511719 15.167969 23.414062 14.929688 23.210938 14.726562 C 23.011719 14.523438 22.769531 14.417969 22.480469 14.417969 C 22.195312 14.417969 21.949219 14.523438 21.75 14.726562 C 21.550781 14.929688 21.449219 15.167969 21.449219 15.449219 C 21.449219 15.738281 21.550781 15.980469 21.75 16.179688 C 21.949219 16.382812 22.195312 16.480469 22.480469 16.480469 Z M 19.621094 14.304688 C 18.492188 14.09375 17.363281 13.988281 16.238281 13.988281 C 15.117188 13.988281 13.984375 14.09375 12.835938 14.304688 C 12.664062 14.34375 12.519531 14.417969 12.394531 14.53125 C 12.269531 14.644531 12.210938 14.789062 12.214844 14.960938 C 12.214844 15.136719 12.277344 15.296875 12.402344 15.441406 C 12.527344 15.585938 12.683594 15.636719 12.871094 15.601562 C 13.992188 15.386719 15.113281 15.28125 16.238281 15.28125 C 17.363281 15.273438 18.476562 15.378906 19.585938 15.589844 C 19.765625 15.628906 19.921875 15.578125 20.054688 15.441406 C 20.183594 15.296875 20.25 15.136719 20.25 14.960938 C 20.25 14.78125 20.1875 14.632812 20.0625 14.523438 C 19.9375 14.410156 19.789062 14.335938 19.621094 14.304688 Z M 19.621094 14.304688 "/>
</g>
</svg>

<svg xmlns="http://www.w3.org/2000/svg" width="24" height="24"><path style="stroke:none;fill-rule:nonzero;fill:#fff;fill-opacity:1" d="M15 18.309c.512-.211.84-.532.984-.957.149-.422.164-.907.04-1.454a6.795 6.795 0 0 0-.641-1.695 12.115 12.115 0 0 0-1.067-1.695 12.787 12.787 0 0 0-1.23-1.445c-.43-.43-.918-.856-1.461-1.274a12.168 12.168 0 0 0-1.668-1.098 6.324 6.324 0 0 0-1.66-.648c-.531-.117-1.012-.098-1.445.066-.43.164-.766.512-1.012 1.051L.28 21.477c-.156.343-.203.671-.14.984.062.32.199.59.414.809.21.222.472.37.785.44.312.067.644.032.996-.112ZM1.46 21.984l4.68-10.379c.27.66.618 1.29 1.032 1.875a14.559 14.559 0 0 0 3.46 3.461c.638.45 1.247.793 1.829 1.032L1.836 22.387c-.156.07-.277.058-.363-.028-.082-.082-.086-.207-.012-.375ZM7.165 9.441c.203-.214.559-.254 1.059-.12.504.128 1.097.421 1.78.87.688.45 1.407 1.051 2.157 1.801.754.742 1.356 1.457 1.8 2.145.45.687.735 1.285.86 1.793.133.504.094.86-.11 1.058-.214.211-.573.254-1.077.13-.508-.13-1.106-.419-1.793-.86-.68-.453-1.395-1.055-2.145-1.813-.75-.742-1.351-1.457-1.8-2.144-.446-.688-.73-1.285-.864-1.793-.125-.504-.082-.86.133-1.067ZM8.54 2.738a.982.982 0 0 0 .723-.3.957.957 0 0 0 .308-.731.96.96 0 0 0-.308-.723c-.2-.199-.442-.3-.723-.3-.293 0-.539.101-.738.3a1.003 1.003 0 0 0-.293.723c0 .285.097.531.293.73.199.2.445.301.738.301Zm1.238 1.754a.869.869 0 0 0-.214-.441.532.532 0 0 0-.442-.2.757.757 0 0 0-.476.208.483.483 0 0 0-.153.468c.215 1.102.32 2.215.32 3.34s-.105 2.25-.32 3.375a.438.438 0 0 0 .153.457.78.78 0 0 0 .468.2.544.544 0 0 0 .43-.188.803.803 0 0 0 .227-.441c.218-1.145.328-2.278.328-3.395 0-1.125-.106-2.254-.32-3.383Zm4.559-.133c.328 0 .625-.078.89-.234.266-.164.481-.375.637-.637.157-.27.235-.566.235-.89 0-.496-.172-.91-.516-1.246a1.696 1.696 0 0 0-1.246-.516c-.488 0-.906.172-1.25.516-.344.335-.516.75-.516 1.246 0 .324.078.62.235.89.164.262.375.473.64.637.266.156.563.234.89.234Zm-1.781 2.954c.23 0 .422-.083.578-.243a.811.811 0 0 0 .246-.593.77.77 0 0 0-.246-.579.77.77 0 0 0-.578-.246.827.827 0 0 0-.594.246.803.803 0 0 0-.242.579c0 .234.082.43.242.593.172.16.367.242.594.242Zm9.43-4.04a.778.778 0 0 0 .57-.234.796.796 0 0 0 .246-.594.796.796 0 0 0-.246-.59.758.758 0 0 0-.57-.242c-.231 0-.43.082-.59.242a.83.83 0 0 0-.235.59c0 .235.078.43.235.594.16.156.359.234.59.234Zm-2.712.61-1.75 1.75a.653.653 0 0 0-.18.46c0 .18.06.337.18.462a.645.645 0 0 0 .47.187c.179 0 .331-.062.456-.187l1.754-1.746a.64.64 0 0 0 .188-.47.613.613 0 0 0-.188-.456.616.616 0 0 0-.46-.188.662.662 0 0 0-.47.188Zm-3.476 3.484-4.781 4.774a.64.64 0 0 0-.188.468c0 .18.063.336.188.461a.66.66 0 0 0 .46.188c.18 0 .336-.063.47-.188l4.769-4.78a.58.58 0 0 0 .168-.454.686.686 0 0 0-.168-.469.686.686 0 0 0-.469-.168.662.662 0 0 0-.45.168Zm7.039 4.313c.277.004.543-.106.738-.301.196-.195.301-.461.293-.738a.985.985 0 0 0-.297-.723c-.203-.2-.445-.3-.734-.3-.293 0-.54.1-.738.3a1.003 1.003 0 0 0-.293.723c0 .293.097.539.293.742.199.199.445.297.738.297Zm-4.031.386c.422 0 .773-.14 1.062-.421.293-.29.438-.641.438-1.06a1.401 1.401 0 0 0-.438-1.05 1.43 1.43 0 0 0-1.062-.441c-.41 0-.762.148-1.047.441-.278.277-.43.656-.422 1.05a1.44 1.44 0 0 0 1.469 1.481Zm3.675 4.414c.29 0 .532-.097.73-.3.204-.2.302-.442.302-.73a.967.967 0 0 0-.301-.723.985.985 0 0 0-.73-.309.998.998 0 0 0-.731.309c-.2.203-.3.441-.3.722 0 .29.1.531.3.73.2.204.445.301.73.301Zm-2.859-2.175a18.173 18.173 0 0 0-3.383-.317c-1.12 0-2.254.106-3.402.317a.956.956 0 0 0-.441.226.543.543 0 0 0-.18.43c0 .176.062.336.187.48.114.141.297.2.47.16 1.108-.214 2.237-.32 3.366-.32a17.167 17.167 0 0 1 3.348.309c.18.039.336-.012.469-.149a.69.69 0 0 0 .195-.48.547.547 0 0 0-.188-.438.875.875 0 0 0-.44-.218Zm0 0"/></svg>
